svg/briefcase_arrow_up_down.svg

<svg xmlns="http://www.w3.org/2000/svg" viewBox="0 0 24 24"><path d="M10 2h4a2 2 0 0 1 2 2v2h4a2 2 0 0 1 2 2v5.53A5.97 5.97 0 0 0 18 12a6.005 6.005 0 0 0-5.2 9H4a2 2 0 0 1-2-2V8c0-1.11.89-2 2-2h4V4c0-1.11.89-2 2-2m4 4V4h-4v2zm3.5 13H19v-4h2v4h1.5L20 22zm-.5-2v4h-2v-4h-1.5l2.5-3 2.5 3z"/></svg>

<svg xmlns="http://www.w3.org/2000/svg" id="mdi-briefcase-arrow-up-down" viewBox="0 0 24 24"><path d="M10 2H14C15.11 2 16 2.9 16 4V6H20C21.11 6 22 6.9 22 8V13.53C20.94 12.58 19.54 12 18 12C14.69 12 12 14.69 12 18C12 19.09 12.29 20.12 12.8 21H4C2.89 21 2 20.1 2 19V8C2 6.89 2.89 6 4 6H8V4C8 2.89 8.89 2 10 2M14 6V4H10V6H14M17.5 19H19V15H21V19H22.5L20 22L17.5 19M17 17V21H15V17H13.5L16 14L18.5 17H17Z" /></svg>
